public/logos/A2.svg

<?xml version="1.0" encoding="UTF-8"?>
<svg xmlns="http://www.w3.org/2000/svg" xmlns:xlink="http://www.w3.org/1999/xlink" width="176pt" height="31.23pt" viewBox="0 0 176 31.23" version="1.1">
<defs>
<clipPath id="clip1">
  <path d="M 147 8 L 164 8 L 164 31.230469 L 147 31.230469 Z M 147 8 "/>
</clipPath>
</defs>
<g id="surface1">
<path style=" stroke:none;fill-rule:nonzero;fill:rgb(92.802429%,6.452942%,32.99408%);fill-opacity:1;" d="M 10.113281 24.0625 C 9.953125 24.332031 10.074219 24.550781 10.390625 24.550781 L 14.660156 24.550781 C 14.976562 24.550781 15.351562 24.324219 15.503906 24.050781 L 17.488281 20.449219 C 17.179688 20.441406 16.867188 20.433594 16.5625 20.421875 C 15.167969 20.386719 13.75 20.34375 12.402344 20.257812 L 10.113281 24.0625 "/>
<path style=" stroke:none;fill-rule:evenodd;fill:rgb(92.802429%,6.452942%,32.99408%);fill-opacity:1;" d="M 25.082031 6.628906 L 22.335938 11.660156 C 24.710938 12.207031 26.40625 13.222656 26.796875 15.136719 L 26.921875 15.136719 L 26.867188 14.367188 L 26.691406 6.007812 L 26.195312 6.007812 C 25.648438 6.007812 25.339844 6.15625 25.082031 6.628906 Z M 17.90625 11.113281 L 22.09375 4.164062 C 22.878906 2.910156 23.753906 2.3125 25.246094 2.3125 L 30.777344 2.3125 L 32.308594 23.980469 C 32.332031 24.296875 32.097656 24.550781 31.78125 24.550781 L 27.648438 24.550781 C 27.335938 24.550781 27.074219 24.292969 27.070312 23.980469 L 27.015625 21.503906 C 26.878906 19.058594 21.796875 18.914062 16.605469 18.769531 C 10.882812 18.605469 5.023438 18.441406 5.5 15.179688 C 8.089844 15.464844 10.835938 15.515625 13.46875 15.5625 C 20.210938 15.679688 26.207031 15.789062 26.882812 19.828125 L 27.035156 19.828125 L 26.964844 19.074219 L 26.917969 17.195312 C 26.855469 14.59375 20.9375 14.371094 14.667969 14.136719 C 7.222656 13.851562 -0.71875 13.554688 0.0507812 9.234375 C 2.640625 10.945312 7.648438 10.972656 12.640625 11.003906 C 14.4375 11.015625 16.230469 11.023438 17.90625 11.113281 "/>
<path style=" stroke:none;fill-rule:nonzero;fill:rgb(92.802429%,6.452942%,32.99408%);fill-opacity:1;" d="M 51.464844 24.550781 L 54.929688 24.550781 C 55.242188 24.550781 55.539062 24.296875 55.597656 23.988281 L 58.214844 9.128906 C 58.269531 8.816406 58.0625 8.566406 57.746094 8.566406 L 54.285156 8.566406 C 53.96875 8.566406 53.671875 8.816406 53.617188 9.128906 L 50.996094 23.988281 C 50.941406 24.296875 51.152344 24.550781 51.464844 24.550781 "/>
<path style=" stroke:none;fill-rule:nonzero;fill:rgb(92.802429%,6.452942%,32.99408%);fill-opacity:1;" d="M 120.238281 9.113281 C 119.417969 11.78125 117.90625 15.582031 116.589844 18.746094 C 116.152344 15.746094 115.726562 12.167969 115.742188 9.132812 C 115.742188 8.820312 115.496094 8.566406 115.183594 8.566406 L 111.78125 8.566406 C 111.78125 8.566406 111.769531 8.566406 111.757812 8.566406 C 111.742188 8.566406 111.617188 8.792969 111.472656 9.074219 C 110.777344 10.445312 108.796875 14.414062 106.847656 18.808594 C 106.597656 15.371094 106.347656 11.273438 106.421875 9.132812 C 106.433594 8.820312 106.199219 8.566406 105.882812 8.566406 L 102.421875 8.566406 C 102.105469 8.566406 101.851562 8.820312 101.855469 9.136719 C 101.925781 14.769531 103.160156 21.953125 103.53125 23.988281 C 103.585938 24.296875 103.890625 24.546875 104.203125 24.546875 L 106.746094 24.546875 C 107.0625 24.546875 107.414062 24.3125 107.53125 24.023438 C 108.855469 20.878906 110.5625 17.390625 112.023438 14.523438 C 112.355469 18.957031 112.941406 22.632812 113.171875 23.988281 C 113.226562 24.296875 113.527344 24.546875 113.839844 24.546875 L 116.144531 24.546875 C 116.457031 24.546875 116.828125 24.320312 116.976562 24.042969 C 117.9375 22.207031 121.328125 15.613281 123.964844 9.09375 C 124.085938 8.804688 123.925781 8.566406 123.609375 8.566406 L 120.96875 8.566406 C 120.65625 8.566406 120.328125 8.8125 120.238281 9.113281 "/>
<path style=" stroke:none;fill-rule:nonzero;fill:rgb(92.802429%,6.452942%,32.99408%);fill-opacity:1;" d="M 40.734375 9.132812 C 40.761719 8.820312 40.53125 8.566406 40.21875 8.566406 L 37.285156 8.566406 C 36.972656 8.566406 36.671875 8.816406 36.617188 9.128906 L 33.996094 23.988281 C 33.941406 24.296875 34.152344 24.550781 34.46875 24.550781 L 37.6875 24.550781 C 38.003906 24.550781 38.300781 24.296875 38.355469 23.988281 L 39.230469 19.027344 C 39.945312 14.960938 41.964844 11.765625 43.707031 11.765625 C 44.867188 11.765625 45.296875 12.636719 44.988281 14.378906 L 43.296875 23.988281 C 43.242188 24.296875 43.453125 24.550781 43.765625 24.550781 L 46.984375 24.550781 C 47.300781 24.550781 47.597656 24.296875 47.652344 23.988281 L 49.5 13.507812 C 50.117188 10.019531 48.390625 8.273438 46.0625 8.273438 C 43.742188 8.273438 41.792969 9.441406 40.457031 12.054688 L 40.734375 9.132812 "/>
<path style=" stroke:none;fill-rule:nonzero;fill:rgb(92.802429%,6.452942%,32.99408%);fill-opacity:1;" d="M 68.984375 11.765625 C 70.148438 11.765625 70.578125 12.636719 70.269531 14.378906 L 68.574219 23.988281 C 68.519531 24.296875 68.730469 24.550781 69.042969 24.550781 L 72.265625 24.550781 C 72.578125 24.550781 72.878906 24.296875 72.933594 23.988281 L 73.808594 19.023438 C 74.523438 14.960938 76.542969 11.765625 78.285156 11.765625 C 79.445312 11.765625 79.875 12.636719 79.566406 14.378906 L 77.871094 23.988281 C 77.816406 24.296875 78.027344 24.550781 78.34375 24.550781 L 81.5625 24.550781 C 81.875 24.550781 82.175781 24.296875 82.230469 23.988281 L 84.078125 13.507812 C 84.695312 10.019531 82.96875 8.273438 80.644531 8.273438 C 78.433594 8.273438 76.5625 9.332031 74.902344 12.179688 C 74.910156 9.582031 73.351562 8.273438 71.34375 8.273438 C 69.023438 8.273438 67.070312 9.441406 65.738281 12.054688 L 66.011719 9.132812 C 66.039062 8.820312 65.808594 8.566406 65.492188 8.566406 L 62.5625 8.566406 C 62.25 8.566406 61.949219 8.816406 61.894531 9.128906 L 59.277344 23.988281 C 59.21875 24.300781 59.433594 24.550781 59.746094 24.550781 L 62.96875 24.550781 C 63.28125 24.550781 63.582031 24.300781 63.632812 23.988281 L 64.507812 19.027344 C 65.226562 14.960938 67.242188 11.765625 68.984375 11.765625 "/>
<path style=" stroke:none;fill-rule:nonzero;fill:rgb(92.802429%,6.452942%,32.99408%);fill-opacity:1;" d="M 57.550781 -0.00390625 C 55.945312 -0.00390625 54.414062 1.296875 54.132812 2.902344 C 53.847656 4.503906 54.921875 5.808594 56.527344 5.808594 C 58.132812 5.808594 59.664062 4.503906 59.945312 2.902344 C 60.226562 1.296875 59.15625 -0.00390625 57.550781 -0.00390625 "/>
<path style=" stroke:none;fill-rule:nonzero;fill:rgb(92.802429%,6.452942%,32.99408%);fill-opacity:1;" d="M 123.632812 24.550781 L 127.097656 24.550781 C 127.410156 24.550781 127.710938 24.296875 127.761719 23.988281 L 130.382812 9.128906 C 130.4375 8.816406 130.226562 8.566406 129.914062 8.566406 L 126.449219 8.566406 C 126.136719 8.566406 125.839844 8.816406 125.785156 9.128906 L 123.160156 23.988281 C 123.105469 24.296875 123.316406 24.550781 123.632812 24.550781 "/>
<path style=" stroke:none;fill-rule:nonzero;fill:rgb(92.802429%,6.452942%,32.99408%);fill-opacity:1;" d="M 128.691406 5.808594 C 130.296875 5.808594 131.828125 4.503906 132.109375 2.902344 C 132.394531 1.296875 131.324219 -0.00390625 129.71875 -0.00390625 C 128.113281 -0.00390625 126.582031 1.296875 126.300781 2.902344 C 126.015625 4.503906 127.089844 5.808594 128.691406 5.808594 "/>
<path style=" stroke:none;fill-rule:evenodd;fill:rgb(92.802429%,6.452942%,32.99408%);fill-opacity:1;" d="M 89.761719 16.703125 C 89.199219 19.902344 89.523438 21.351562 90.976562 21.351562 C 92.71875 21.351562 94.738281 18.15625 95.453125 14.089844 L 95.757812 12.351562 C 95.136719 11.902344 94.515625 11.765625 93.828125 11.765625 C 92.085938 11.765625 90.378906 13.214844 89.761719 16.703125 Z M 88.910156 24.835938 C 85.421875 24.835938 84.53125 21.644531 85.199219 17.863281 C 86.121094 12.636719 89.796875 8.273438 94.734375 8.273438 C 97.347656 8.273438 98.992188 8.859375 100.34375 9.441406 L 100.242188 10.019531 L 98.546875 19.609375 C 98.320312 20.902344 98.28125 22.433594 98.472656 23.984375 C 98.507812 24.296875 98.292969 24.550781 97.980469 24.550781 L 95.050781 24.550781 C 94.734375 24.550781 94.46875 24.292969 94.453125 23.980469 L 94.292969 21.078125 C 93 23.355469 91.316406 24.835938 88.910156 24.835938 "/>
<g clip-path="url(#clip1)" clip-rule="nonzero">
<path style=" stroke:none;fill-rule:evenodd;fill:rgb(92.802429%,6.452942%,32.99408%);fill-opacity:1;" d="M 152.632812 16.703125 C 152.066406 19.902344 152.394531 21.351562 153.847656 21.351562 C 155.589844 21.351562 157.605469 18.15625 158.320312 14.089844 L 158.628906 12.351562 C 158.003906 11.902344 157.386719 11.765625 156.699219 11.765625 C 154.957031 11.765625 153.246094 13.214844 152.632812 16.703125 Z M 148.070312 17.863281 C 148.992188 12.636719 152.664062 8.273438 157.605469 8.273438 C 160.21875 8.273438 161.859375 8.859375 163.210938 9.441406 L 161.808594 17.21875 C 161.527344 18.671875 161.355469 20.394531 161.214844 21.757812 C 161.132812 22.5625 161.0625 23.246094 160.992188 23.675781 C 160.316406 27.777344 156.71875 31.230469 151.777344 31.230469 C 149.578125 31.230469 148.496094 31.0625 147.523438 30.804688 C 147.222656 30.722656 147.070312 30.414062 147.183594 30.125 L 148.09375 27.789062 C 148.207031 27.5 148.542969 27.332031 148.851562 27.40625 C 149.949219 27.671875 150.894531 27.742188 152.394531 27.742188 C 154.554688 27.742188 156.457031 26.507812 156.925781 23.675781 C 157.085938 22.695312 157.144531 21.769531 157.113281 21.160156 C 155.9375 23.183594 154.160156 24.835938 151.777344 24.835938 C 148.292969 24.835938 147.402344 21.644531 148.070312 17.863281 "/>
</g>
<path style=" stroke:none;fill-rule:nonzero;fill:rgb(92.802429%,6.452942%,32.99408%);fill-opacity:1;" d="M 168.640625 12.925781 C 168.8125 12.058594 169.574219 11.472656 171.132812 11.472656 C 172.347656 11.472656 173.566406 11.601562 174.523438 11.898438 C 174.824219 11.988281 175.144531 11.851562 175.25 11.558594 L 175.96875 9.539062 C 176.070312 9.246094 175.917969 8.917969 175.617188 8.820312 C 174.472656 8.457031 173.371094 8.273438 171.605469 8.273438 C 168.703125 8.273438 165.292969 10.019531 164.730469 13.214844 C 164.1875 16.277344 165.859375 17.164062 168.789062 17.960938 C 170.660156 18.46875 171.363281 19.027344 171.167969 20.042969 C 170.976562 21.058594 170.054688 21.644531 168.699219 21.644531 C 167.472656 21.644531 165.867188 21.332031 164.796875 20.96875 C 164.5 20.871094 164.179688 21.011719 164.074219 21.308594 L 163.355469 23.382812 C 163.25 23.679688 163.402344 24.015625 163.695312 24.117188 C 164.871094 24.539062 166.1875 24.835938 168.234375 24.835938 C 170.847656 24.835938 174.519531 22.988281 175.078125 19.792969 C 175.59375 16.886719 174.039062 15.511719 171.167969 14.667969 C 169.351562 14.136719 168.457031 13.84375 168.640625 12.925781 "/>
<path style=" stroke:none;fill-rule:nonzero;fill:rgb(92.802429%,6.452942%,32.99408%);fill-opacity:1;" d="M 137.890625 9.132812 C 137.917969 8.820312 137.683594 8.566406 137.371094 8.566406 L 134.441406 8.566406 C 134.128906 8.566406 133.828125 8.816406 133.773438 9.128906 L 131.152344 23.988281 C 131.097656 24.296875 131.3125 24.550781 131.625 24.550781 L 134.84375 24.550781 C 135.15625 24.550781 135.457031 24.296875 135.511719 23.988281 L 136.386719 19.027344 C 137.105469 14.960938 139.121094 11.765625 140.863281 11.765625 C 142.023438 11.765625 142.453125 12.636719 142.144531 14.378906 L 140.453125 23.988281 C 140.398438 24.296875 140.605469 24.550781 140.921875 24.550781 L 144.144531 24.550781 C 144.457031 24.550781 144.757812 24.296875 144.808594 23.988281 L 146.65625 13.507812 C 147.273438 10.019531 145.546875 8.273438 143.222656 8.273438 C 140.898438 8.273438 138.949219 9.441406 137.617188 12.054688 L 137.890625 9.132812 "/>
</g>
</svg>

<svg xmlns="http://www.w3.org/2000/svg" width="176pt" height="41.64" viewBox="0 0 176 31.23"><defs><clipPath id="a"><path d="M147 8h17v23.23h-17Zm0 0"/></clipPath></defs><path d="M10.113 24.063c-.16.269-.039.488.278.488h4.27c.316 0 .69-.227.843-.5l1.984-3.602c-.308-.008-.62-.015-.925-.027a110 110 0 0 1-4.16-.164z" style="stroke:none;fill-rule:nonzero;fill:#ed1054;fill-opacity:1"/><path d="m25.082 6.629-2.746 5.031c2.375.547 4.07 1.563 4.46 3.477h.126l-.055-.77-.176-8.36h-.496c-.547 0-.855.15-1.113.622m-7.176 4.484 4.188-6.949c.785-1.254 1.66-1.851 3.152-1.851h5.531L32.31 23.98a.52.52 0 0 1-.528.57h-4.133a.583.583 0 0 1-.578-.57l-.054-2.476c-.137-2.445-5.22-2.59-10.41-2.734-5.723-.165-11.583-.329-11.106-3.59 2.59.285 5.336.336 7.969.383 6.742.117 12.738.226 13.414 4.265h.152l-.07-.754-.047-1.879c-.063-2.601-5.98-2.824-12.25-3.058C7.223 13.852-.719 13.555.051 9.234c2.59 1.711 7.597 1.739 12.59 1.77 1.797.012 3.59.02 5.265.11" style="stroke:none;fill-rule:evenodd;fill:#ed1054;fill-opacity:1"/><path d="M51.465 24.55h3.465c.312 0 .61-.253.668-.562l2.617-14.86c.055-.312-.153-.562-.469-.562h-3.46a.7.7 0 0 0-.669.563l-2.62 14.86a.463.463 0 0 0 .468.562M120.238 9.113c-.82 2.668-2.332 6.469-3.648 9.633-.438-3-.863-6.578-.848-9.613a.56.56 0 0 0-.558-.567h-3.426c-.016 0-.14.227-.285.508a223 223 0 0 0-4.625 9.735c-.25-3.438-.5-7.536-.426-9.676a.535.535 0 0 0-.54-.567h-3.46a.563.563 0 0 0-.567.57c.07 5.634 1.305 12.817 1.676 14.852.055.309.36.559.672.559h2.543c.317 0 .668-.235.785-.524 1.324-3.144 3.031-6.632 4.492-9.5.332 4.434.918 8.11 1.149 9.465a.704.704 0 0 0 .668.559h2.305c.312 0 .683-.227.832-.504.96-1.836 4.351-8.43 6.988-14.95.12-.288-.04-.527-.356-.527h-2.64a.81.81 0 0 0-.73.547M40.734 9.133a.51.51 0 0 0-.515-.567h-2.934a.7.7 0 0 0-.668.563l-2.62 14.86a.463.463 0 0 0 .472.562h3.218a.704.704 0 0 0 .668-.563l.875-4.96c.715-4.067 2.735-7.262 4.477-7.262 1.16 0 1.59.87 1.281 2.613l-1.691 9.61a.463.463 0 0 0 .469.562h3.218a.704.704 0 0 0 .668-.563l1.848-10.48c.617-3.488-1.11-5.235-3.437-5.235-2.32 0-4.27 1.168-5.606 3.782zM68.984 11.766q1.747 0 1.286 2.613l-1.696 9.61a.463.463 0 0 0 .469.562h3.223a.71.71 0 0 0 .668-.563l.875-4.965c.714-4.062 2.734-7.257 4.476-7.257 1.16 0 1.59.87 1.281 2.613l-1.695 9.61a.463.463 0 0 0 .473.562h3.219a.71.71 0 0 0 .667-.563l1.848-10.48c.617-3.488-1.11-5.235-3.433-5.235-2.211 0-4.082 1.059-5.743 3.907.008-2.598-1.55-3.907-3.558-3.907-2.32 0-4.274 1.168-5.606 3.782l.274-2.922a.51.51 0 0 0-.52-.567h-2.93a.7.7 0 0 0-.667.563l-2.618 14.86a.46.46 0 0 0 .47.562h3.222c.312 0 .613-.25.664-.563l.875-4.96c.719-4.067 2.734-7.262 4.476-7.262M57.55-.004c-1.605 0-3.136 1.3-3.417 2.906-.285 1.602.789 2.907 2.394 2.907 1.606 0 3.137-1.305 3.418-2.907.282-1.605-.789-2.906-2.394-2.906M123.633 24.55h3.465a.7.7 0 0 0 .664-.562l2.62-14.86a.46.46 0 0 0-.468-.562h-3.465a.7.7 0 0 0-.664.563l-2.625 14.86a.463.463 0 0 0 .473.562M128.691 5.809c1.606 0 3.137-1.305 3.418-2.907.286-1.605-.785-2.906-2.39-2.906-1.606 0-3.137 1.3-3.418 2.906-.285 1.602.789 2.907 2.39 2.907" style="stroke:none;fill-rule:nonzero;fill:#ed1054;fill-opacity:1"/><path d="M89.762 16.703c-.563 3.2-.239 4.649 1.215 4.649 1.742 0 3.761-3.196 4.476-7.262l.305-1.738c-.621-.45-1.242-.586-1.93-.586-1.742 0-3.45 1.449-4.066 4.937m-.852 8.133c-3.488 0-4.379-3.191-3.71-6.973.921-5.226 4.597-9.59 9.534-9.59 2.614 0 4.258.586 5.61 1.168l-.102.579-1.695 9.59c-.227 1.292-.266 2.824-.074 4.374.035.313-.18.567-.493.567h-2.93a.606.606 0 0 1-.597-.57l-.16-2.903c-1.293 2.277-2.977 3.758-5.383 3.758" style="stroke:none;fill-rule:evenodd;fill:#ed1054;fill-opacity:1"/><g clip-path="url(#a)"><path d="M152.633 16.703c-.567 3.2-.238 4.649 1.215 4.649 1.742 0 3.757-3.196 4.472-7.262l.309-1.738c-.625-.45-1.242-.586-1.93-.586-1.742 0-3.453 1.449-4.066 4.937m-4.563 1.16c.922-5.226 4.594-9.59 9.535-9.59 2.614 0 4.254.586 5.606 1.168l-1.402 7.778c-.282 1.453-.454 3.176-.594 4.539-.082.805-.153 1.488-.223 1.918-.676 4.101-4.273 7.554-9.215 7.554-2.199 0-3.28-.168-4.254-.425a.503.503 0 0 1-.34-.68l.91-2.336a.66.66 0 0 1 .759-.383c1.097.266 2.043.336 3.543.336 2.16 0 4.062-1.234 4.53-4.066.16-.98.22-1.906.188-2.516-1.175 2.024-2.953 3.676-5.336 3.676-3.484 0-4.375-3.191-3.707-6.973" style="stroke:none;fill-rule:evenodd;fill:#ed1054;fill-opacity:1"/></g><path d="M168.64 12.926c.173-.867.934-1.453 2.493-1.453 1.215 0 2.433.129 3.39.425.301.09.622-.046.727-.34l.719-2.019a.56.56 0 0 0-.352-.719c-1.144-.363-2.246-.547-4.012-.547-2.902 0-6.312 1.747-6.875 4.942-.542 3.062 1.13 3.95 4.06 4.746 1.87.508 2.573 1.066 2.378 2.082-.191 1.016-1.113 1.602-2.469 1.602-1.226 0-2.832-.313-3.902-.676a.567.567 0 0 0-.723.34l-.719 2.074a.575.575 0 0 0 .34.734c1.176.422 2.493.719 4.54.719 2.613 0 6.285-1.848 6.843-5.043.516-2.906-1.039-4.281-3.91-5.125-1.816-.531-2.711-.824-2.527-1.742M137.89 9.133a.513.513 0 0 0-.519-.567h-2.93a.7.7 0 0 0-.668.563l-2.62 14.86a.465.465 0 0 0 .472.562h3.219a.71.71 0 0 0 .668-.563l.875-4.96c.718-4.067 2.734-7.262 4.476-7.262 1.16 0 1.59.87 1.282 2.613l-1.692 9.61a.46.46 0 0 0 .469.562h3.223a.7.7 0 0 0 .664-.563l1.847-10.48c.617-3.488-1.11-5.235-3.433-5.235-2.325 0-4.274 1.168-5.606 3.782z" style="stroke:none;fill-rule:nonzero;fill:#ed1054;fill-opacity:1"/></svg>
